client/src/Icons/fullscreen.svg

<svg width="512" height="512" xmlns="http://www.w3.org/2000/svg">

 <g>
  <title>background</title>
  <rect fill="none" id="canvas_background" height="402" width="582" y="-1" x="-1"/>
 </g>
 <g>
  <title>Layer 1</title>
  <path id="svg_4" fill="#f13ab1" class="active-path" d="m191.142,162.858l-122.857,-122.858l78.715,0c11.046,0 20,-8.954 20,-20s-8.954,-20 -20,-20l-87,0c-33.084,0 -60,26.916 -60,60l0,87c0,11.046 8.954,20 20,20s20,-8.954 20,-20l0,-78.715l122.858,122.858c3.905,3.905 9.023,5.857 14.142,5.857s10.237,-1.952 14.142,-5.857c7.811,-7.811 7.811,-20.475 0,-28.285z"/>
  <path id="svg_7" fill="#f13ab1" class="active-path" d="m191.142,320.858c-7.811,-7.81 -20.474,-7.811 -28.284,-0.001l-122.858,122.858l0,-78.715c0,-11.046 -8.954,-20 -20,-20s-20,8.954 -20,20l0,87c0,33.084 26.916,60 60,60l87,0c11.046,0 20,-8.954 20,-20c0,-11.046 -8.954,-20 -20,-20l-78.715,0l122.857,-122.857c7.811,-7.811 7.811,-20.475 0,-28.285z"/>
  <path id="svg_10" fill="#f13ab1" class="active-path" d="m492,345c-11.046,0 -20,8.954 -20,20l0,78.715l-122.858,-122.858c-7.811,-7.811 -20.474,-7.811 -28.284,0c-7.81,7.811 -7.811,20.475 0,28.285l122.857,122.858l-78.715,0c-11.046,0 -20,8.954 -20,20c0,11.046 8.954,20 20,20l87,0c33.084,0 60,-26.916 60,-60l0,-87c0,-11.046 -8.954,-20 -20,-20z"/>
  <path id="svg_13" fill="#f13ab1" class="active-path" d="m452,0l-87,0c-11.046,0 -20,8.954 -20,20s8.954,20 20,20l78.715,0l-122.857,122.857c-7.811,7.811 -7.811,20.475 0,28.285c3.905,3.906 9.023,5.858 14.142,5.858c5.119,0 10.237,-1.952 14.142,-5.857l122.858,-122.858l0,78.715c0,11.046 8.954,20 20,20c11.046,0 20,-8.954 20,-20l0,-87c0,-33.084 -26.916,-60 -60,-60z"/>
 </g>
</svg>

<?xml version="1.0"?>
<svg xmlns="http://www.w3.org/2000/svg" xmlns:xlink="http://www.w3.org/1999/xlink" version="1.1" id="Capa_1" x="0px" y="0px" viewBox="0 0 512 512" style="enable-background:new 0 0 512 512;" xml:space="preserve" width="512px" height="512px" class=""><g><g>
	<g>
		<path d="M191.142,162.858L68.285,40H147c11.046,0,20-8.954,20-20s-8.954-20-20-20H60C26.916,0,0,26.916,0,60v87    c0,11.046,8.954,20,20,20s20-8.954,20-20V68.285l122.858,122.858C166.763,195.048,171.881,197,177,197s10.237-1.952,14.142-5.857    C198.953,183.332,198.953,170.668,191.142,162.858z" data-original="#000000" class="active-path" data-old_color="#000000" fill="#26C6DA"/>
	</g>
</g><g>
	<g>
		<path d="M191.142,320.858c-7.811-7.81-20.474-7.811-28.284-0.001L40,443.715V365c0-11.046-8.954-20-20-20s-20,8.954-20,20v87    c0,33.084,26.916,60,60,60h87c11.046,0,20-8.954,20-20c0-11.046-8.954-20-20-20H68.285l122.857-122.857    C198.953,341.332,198.953,328.668,191.142,320.858z" data-original="#000000" class="active-path" data-old_color="#000000" fill="#26C6DA"/>
	</g>
</g><g>
	<g>
		<path d="M492,345c-11.046,0-20,8.954-20,20v78.715L349.142,320.857c-7.811-7.811-20.474-7.811-28.284,0    c-7.81,7.811-7.811,20.475,0,28.285L443.715,472H365c-11.046,0-20,8.954-20,20c0,11.046,8.954,20,20,20h87    c33.084,0,60-26.916,60-60v-87C512,353.954,503.046,345,492,345z" data-original="#000000" class="active-path" data-old_color="#000000" fill="#26C6DA"/>
	</g>
</g><g>
	<g>
		<path d="M452,0h-87c-11.046,0-20,8.954-20,20s8.954,20,20,20h78.715L320.858,162.857c-7.811,7.811-7.811,20.475,0,28.285    C324.763,195.048,329.881,197,335,197c5.119,0,10.237-1.952,14.142-5.857L472,68.285V147c0,11.046,8.954,20,20,20    c11.046,0,20-8.954,20-20V60C512,26.916,485.084,0,452,0z" data-original="#000000" class="active-path" data-old_color="#000000" fill="#26C6DA"/>
	</g>
</g></g> </svg>
